src/assets/healthPage/Invisalign/5.svg

<?xml version="1.0" encoding="UTF-8"?>
<svg width="232px" height="112px" viewBox="0 0 232 112" version="1.1" xmlns="http://www.w3.org/2000/svg" xmlns:xlink="http://www.w3.org/1999/xlink">
    <title>5</title>
    <g id="Design" stroke="none" stroke-width="1" fill="none" fill-rule="evenodd" opacity="0.5">
        <g id="Health---Invisalign" transform="translate(-808.000000, -2327.000000)">
            <g id="Group-15" transform="translate(-3.000000, 0.000000)">
                <g id="1" transform="translate(811.000000, 2327.000000)">
                    <path d="M83.59375,0.28515625 C85.3515625,0.28515625 85.3515625,0.28515625 85.3515625,2.82421875 C85.3515625,6.73046875 85.3515625,6.73046875 83.984375,11.2226562 C82.6171875,15.7148438 82.6171875,15.7148438 81.2988281,16.3496094 C79.9804688,16.984375 79.9804688,16.984375 76.6601562,16.984375 L76.6601562,16.984375 L38.8671875,15.7148438 L35.15625,39.3476562 L35.9231062,39.1751524 C43.6337426,37.4921875 43.6337426,37.4921875 53.0273438,37.4921875 C62.890625,37.4921875 62.890625,37.4921875 72.1679688,40.6660156 C81.4453125,43.8398438 81.4453125,43.8398438 88.1835938,49.796875 C102.441406,62.3945312 102.441406,62.3945312 102.441406,83.390625 C102.441406,93.3994882 102.441406,93.3994882 98.8225592,101.999935 L85.2368287,102.000212 C87.109375,96.1211581 87.109375,96.1211581 87.109375,89.1523438 C87.109375,72.6484375 87.109375,72.6484375 77.1484375,62.4921875 C66.40625,51.5546875 66.40625,51.5546875 48.9257812,51.5546875 C33.3007812,51.5546875 33.3007812,51.5546875 28.515625,56.6328125 C27.6367188,57.5117188 27.6367188,57.5117188 26.4648438,57.5117188 C24.7070312,57.5117188 24.7070312,57.5117188 24.7070312,55.1679688 C24.7070312,54.3867188 24.7070312,54.3867188 24.8535156,53.4101562 C25,52.4335938 25,52.4335938 25.1953125,51.0664062 L25.1953125,51.0664062 L31.7382812,8.29296875 L31.7975396,7.94221851 C32.4473505,4.14894701 32.4473505,4.14894701 33.0078125,3.21484375 C33.984375,1.359375 33.984375,1.359375 36.8164062,1.359375 L36.8164062,1.359375 L64.7460938,2.140625 L65.2904623,2.14004715 C79.0696364,2.11057692 79.0696364,2.11057692 82.421875,0.578125 C83.0078125,0.28515625 83.0078125,0.28515625 83.59375,0.28515625 Z" id="Combined-Shape" fill="#F05024"></path>
                    <rect id="line" fill="#55311B" opacity="0.100000001" x="0" y="110" width="232" height="1"></rect>
                </g>
            </g>
        </g>
    </g>
</svg>

<svg height="112" viewBox="0 0 232 112" width="232" xmlns="http://www.w3.org/2000/svg"><g fill="none" fill-rule="evenodd" opacity=".5"><path d="m83.59375.28515625c1.7578125 0 1.7578125 0 1.7578125 2.5390625 0 3.90625 0 3.90625-1.3671875 8.39843745-1.3671875 4.4921876-1.3671875 4.4921876-2.6855469 5.1269532-1.3183593.6347656-1.3183593.6347656-4.6386719.6347656l-37.7929687-1.2695312-3.7109375 23.6328124.7668562-.1725038c7.7106364-1.6829649 7.7106364-1.6829649 17.1042376-1.6829649 9.8632812 0 9.8632812 0 19.140625 3.1738281 9.2773437 3.1738282 9.2773437 3.1738282 16.015625 9.1308594 14.2578122 12.5976562 14.2578122 12.5976562 14.2578122 33.59375 0 10.0088632 0 10.0088632-3.6188468 18.60931l-13.5857305.000277c1.8725463-5.8790539 1.8725463-5.8790539 1.8725463-12.8478682 0-16.5039063 0-16.5039063-9.9609375-26.6601563-10.7421875-10.9375-10.7421875-10.9375-28.2226563-10.9375-15.625 0-15.625 0-20.4101562 5.078125-.8789062.8789063-.8789062.8789063-2.0507812.8789063-1.7578126 0-1.7578126 0-1.7578126-2.34375 0-.78125 0-.78125.1464844-1.7578126.1464844-.9765624.1464844-.9765624.3417969-2.34375l6.5429687-42.77343745.0592584-.35075024c.6498109-3.7932715.6498109-3.7932715 1.2102729-4.72737476.9765625-1.85546875.9765625-1.85546875 3.8085937-1.85546875l27.9296876.78125.5443685-.00057785c13.7791741-.02947023 13.7791741-.02947023 17.1314127-1.56192215.5859375-.29296875.5859375-.29296875 1.171875-.29296875z" fill="#f05024"/><path d="m0 110h232v1h-232z" fill="#55311b" opacity=".1"/></g></svg>
